X:1288
T:The Miller's Daughter
R:Reel
N:Collected by Cronin
B:O'Neill's 1288
Z:Transcribed by Trish O'Neil
M:C|
L:1/8
K:A
ag|ec 3ccc ecfc|dfecB2af|ec 3ccc ecAc|BABcA2af|
ec 3ccc ecac|dfecB3f|ecea fdfa|gefga2||
fg|afge fdef|afecB2fg|afge fdec|defg agaf|
eaga bgaf|ecAcB2Bc|Adedc defa|gefg a2|]
